X: 596
T:Maloney's Wife
T:Biddy Maloney
R:jig
S:Trad, arr. Paddy O'Brien
M:6/8
L:1/8
N:Posted to the woodenflute mailing list November 2002
Z:MHogan
K:D
A1/2G1/2|~F2A AFA|AdB AFD|GBG FGA|BGE EAG|!
~F2A AFA|AFA ~d2A|Bcd edB|AFD D2:|!
c/2d/2|eAA Bcd|ecA ~A2F|GBG FGA|BGE Ecd|!
[1 eAA Bcd|ecA ~d2A|Bcd edB|AFD D2:|!
[2 eAA fAA|ecA ~d2A|Bcd edB|AFD D2||!
e1/2f1/2|gfg faf|gfe def|gbg fga|bge ~e2f|!
gbg faf|gfe ~d2A|Bcd edB|AFD D2:|!

